outputs/icons/charts/chart_line_predict_round.svg

<svg xmlns="http://www.w3.org/2000/svg" width="1200" height="1200" fill="none"><path fill="#000" d="m703 497-78.08-35.628c-9.745-4.448-9.745-18.296 0-22.744L703 403l35.63-78.079c4.445-9.747 18.295-9.747 22.74 0L797 403l78.08 35.628c9.745 4.448 9.745 18.296 0 22.744L797 497l-35.63 78.08c-4.445 9.745-18.295 9.745-22.74 0zM188.628 675.08c4.448 9.745 18.296 9.745 22.744 0L247 597l78.079-35.63c9.747-4.445 9.747-18.295 0-22.74L247 503l-35.628-78.078c-4.448-9.748-18.296-9.748-22.744 0L153 503l-78.079 35.63c-9.747 4.445-9.747 18.295 0 22.74L153 597zM413.61 424.818c4.432 9.799 18.348 9.799 22.78 0L479.5 329.5l95.32-43.111c9.795-4.432 9.795-18.346 0-22.778L479.5 220.5l-43.11-95.318c-4.432-9.799-18.348-9.799-22.78 0L370.5 220.5l-95.318 43.111c-9.799 4.432-9.799 18.346 0 22.778L370.5 329.5zM187.472 987.47c20.721 20.725 54.321 20.71 75.025-.03L525 724.5l162.51 162.51c20.34 20.34 53.605 19.365 72.72-2.135l358.58-403.298c17.515-19.697 16.635-49.63-2-68.266-20.245-20.245-53.35-19.278-72.38 2.113L725 774.5 560.38 609.88c-19.535-19.535-51.215-19.525-70.736.02L187.447 912.505c-20.685 20.71-20.675 54.27.025 74.965"/></svg>

<svg width="1200" height="1200" viewBox="0 0 1200 1200" fill="none" xmlns="http://www.w3.org/2000/svg"><path d="M703 497L624.92 461.372C615.175 456.924 615.175 443.076 624.92 438.628L703 403L738.63 324.921C743.075 315.174 756.925 315.174 761.37 324.921L797 403L875.08 438.628C884.825 443.076 884.825 456.924 875.08 461.372L797 497L761.37 575.08C756.925 584.825 743.075 584.825 738.63 575.08L703 497ZM188.628 675.08C193.076 684.825 206.924 684.825 211.372 675.08L247 597L325.079 561.37C334.826 556.925 334.826 543.075 325.079 538.63L247 503L211.372 424.922C206.924 415.174 193.076 415.174 188.628 424.922L153 503L74.921 538.63C65.174 543.075 65.174 556.925 74.921 561.37L153 597L188.628 675.08ZM413.61 424.818C418.042 434.617 431.958 434.617 436.39 424.818L479.5 329.5L574.82 286.389C584.615 281.957 584.615 268.043 574.82 263.611L479.5 220.5L436.39 125.182C431.958 115.383 418.042 115.383 413.61 125.182L370.5 220.5L275.182 263.611C265.383 268.043 265.383 281.957 275.182 286.389L370.5 329.5L413.61 424.818ZM187.472 987.47C208.193 1008.195 241.793 1008.18 262.497 987.44L525 724.5L687.51 887.01C707.85 907.35 741.115 906.375 760.23 884.875L1118.81 481.577C1136.325 461.88 1135.445 431.947 1116.81 413.311C1096.565 393.066 1063.46 394.033 1044.43 415.424L725 774.5L560.38 609.88C540.845 590.345 509.165 590.355 489.644 609.9L187.447 912.505C166.762 933.215 166.772 966.775 187.472 987.47Z" fill="black"/></svg>
